assets/icons/task/error.svg

<?xml version="1.0" encoding="UTF-8" standalone="no"?>
<svg
   viewBox="0 0 24 24"
   height="24"
   width="24"
   version="1.1"
   id="svg4"
   sodipodi:docname="error.svg"
   inkscape:version="1.2 (1:1.2.1+202207142221+cd75a1ee6d)"
   xmlns:inkscape="http://www.inkscape.org/namespaces/inkscape"
   xmlns:sodipodi="http://sodipodi.sourceforge.net/DTD/sodipodi-0.dtd"
   xmlns="http://www.w3.org/2000/svg"
   xmlns:svg="http://www.w3.org/2000/svg">
  <defs
     id="defs8" />
  <sodipodi:namedview
     id="namedview6"
     pagecolor="#ffffff"
     bordercolor="#666666"
     borderopacity="1.0"
     inkscape:pageshadow="2"
     inkscape:pageopacity="0.0"
     inkscape:pagecheckerboard="0"
     showgrid="true"
     inkscape:snap-page="true"
     inkscape:zoom="39.59798"
     inkscape:cx="12.058696"
     inkscape:cy="14.634585"
     inkscape:window-width="1920"
     inkscape:window-height="1016"
     inkscape:window-x="0"
     inkscape:window-y="0"
     inkscape:window-maximized="1"
     inkscape:current-layer="svg4"
     inkscape:showpageshadow="2"
     inkscape:deskcolor="#d1d1d1">
    <inkscape:grid
       type="xygrid"
       id="grid821" />
    <inkscape:grid
       type="xygrid"
       id="grid823"
       dotted="true"
       spacingx="0.5"
       spacingy="0.5"
       empspacing="10" />
  </sodipodi:namedview>
  <path
     id="path389"
     style="fill:#808080;fill-rule:evenodd;stroke:none;stroke-width:2;stroke-linecap:round;stroke-linejoin:round"
     d="M 16.5 15 C 14.567007 15 13 16.567007 13 18.5 C 13 20.432993 14.567007 22 16.5 22 C 18.432993 22 20 20.432993 20 18.5 C 20 16.567007 18.432993 15 16.5 15 z M 15.353516 16.646484 L 15.5 16.792969 L 15.853516 17.146484 L 16.5 17.792969 L 17.5 16.792969 L 17.646484 16.646484 L 18.353516 17.353516 L 18.207031 17.5 L 17.853516 17.853516 L 17.207031 18.5 L 17.853516 19.146484 L 18.207031 19.5 L 18.353516 19.646484 L 17.646484 20.353516 L 17.5 20.207031 L 16.5 19.207031 L 15.853516 19.853516 L 15.5 20.207031 L 15.353516 20.353516 L 14.646484 19.646484 L 14.792969 19.5 L 15.146484 19.146484 L 15.792969 18.5 L 15.146484 17.853516 L 14.792969 17.5 L 14.646484 17.353516 L 15.353516 16.646484 z " />
  <path
     id="rect896"
     style="fill:#808080;fill-opacity:1;fill-rule:evenodd;stroke-width:0.5;stroke-linecap:round"
     d="m 11.5,2 c -1.380709,0 -2.5,1.1192923 -2.5,2.5 0.00266,0.168213 0.022289,0.33573 0.058594,0.5 h -0.5585938 c -1.499991,0 -2.5560543,-0.050743 -3.3828125,0.4453125 -0.4133791,0.2480277 -0.7199384,0.65591 -0.8886719,1.1621094 -0.1687329,0.5061994 -0.2285156,1.1148051 -0.2285156,1.8925781 v 9 c 0,0.777772 0.059782,1.386381 0.2285156,1.892578 0.1687335,0.506202 0.4752928,0.914081 0.8886719,1.16211 0.7278563,0.436712 1.6530639,0.448472 2.8828125,0.445312 h 4.763672 c -0.206228,-0.311451 -0.372875,-0.647369 -0.496094,-1 h -4.267578 v -0.0059 c -1.1974652,-0.0129 -1.995745,-0.07597 -2.3671875,-0.298829 -0.2116173,-0.126965 -0.3425629,-0.281593 -0.4550781,-0.61914 -0.1125153,-0.337547 -0.1777344,-0.853956 -0.1777344,-1.576172 v -9 c 0,-0.722218 0.065219,-1.2386261 0.1777344,-1.5761719 0.1125152,-0.3375452 0.2434608,-0.4921701 0.4550781,-0.6191406 0.3714425,-0.2228657 1.1697223,-0.2859248 2.3671875,-0.2988281 v 0.9941406 h 3.5 3.5 v -0.9941406 c 1.197466,0.012903 1.995743,0.075962 2.367188,0.2988281 0.211613,0.1269705 0.342562,0.2815954 0.455078,0.6191406 0.112515,0.3375458 0.177734,0.8539539 0.177734,1.5761719 v 0.5 5.257812 c 0.352822,0.124449 0.688748,0.292412 1,0.5 v -5.757812 -0.5 c 0,-0.777773 -0.05978,-1.3863787 -0.228516,-1.8925781 -0.168729,-0.5061994 -0.47529,-0.9140817 -0.888672,-1.1621094 -0.826756,-0.4960548 -1.882819,-0.4453125 -3.382812,-0.4453125 h -0.558594 c 0.0363,-0.16427 0.05594,-0.331787 0.05859,-0.5 0,-1.3807077 -1.119291,-2.5 -2.5,-2.5 z m 0,1 c 0.828424,0 1.5,0.6715753 1.5,1.5 0,0.8284247 -0.671576,1.5 -1.5,1.5 -0.828424,0 -1.5,-0.6715753 -1.5,-1.5 0,-0.8284247 0.671576,-1.5 1.5,-1.5 z m -4.5,6 v 1 h 9 v -1 z m 0,2 v 1 h 9 v -1 z m 0,2 v 1 h 9 v -1 z m 0,2 v 1 h 5 v -1 z"
     sodipodi:nodetypes="sccssssssscccccsssssscccccsssccccscssccsssssscccccccccccccccccccc" />
</svg>

<svg height="24" width="24" xmlns="http://www.w3.org/2000/svg"><path style="fill:gray;stroke:none;stroke-width:2;stroke-linecap:round;stroke-linejoin:round" d="M16.5 15a3.5 3.5 0 1 0 0 7 3.5 3.5 0 0 0 0-7zm-1.146 1.646.146.147.354.353.646.647 1-1 .146-.147.708.708-.147.146-.353.354-.647.646.647.646.353.354.147.146-.708.708-.146-.147-1-1-.646.647-.354.353-.146.147-.708-.708.147-.146.353-.354.647-.646-.647-.646-.353-.354-.147-.146.708-.708z"/><path style="fill:gray;fill-opacity:1;stroke-width:.5;stroke-linecap:round" d="M11.5 2A2.5 2.5 0 0 0 9 4.5a2.5 2.5 0 0 0 .059.5H8.5c-1.5 0-2.556-.05-3.383.445-.413.248-.72.656-.888 1.162C4.059 7.114 4 7.722 4 8.5v9c0 .778.06 1.386.229 1.893.168.506.475.914.888 1.162.728.436 1.653.448 2.883.445h4.764a4.5 4.5 0 0 1-.496-1H8v-.006c-1.197-.013-1.996-.076-2.367-.299-.212-.127-.343-.281-.455-.619C5.065 18.74 5 18.222 5 17.5v-9c0-.722.065-1.239.178-1.576.112-.338.243-.492.455-.62.371-.222 1.17-.285 2.367-.298V7h7v-.994c1.197.013 1.996.076 2.367.299.212.127.343.281.455.619.113.337.178.854.178 1.576v5.758a4.5 4.5 0 0 1 1 .5V8.5c0-.778-.06-1.386-.229-1.893-.168-.506-.475-.914-.888-1.162C17.056 4.95 16 5 14.5 5h-.559A2.5 2.5 0 0 0 14 4.5 2.5 2.5 0 0 0 11.5 2zm0 1a1.5 1.5 0 1 1 0 3 1.5 1.5 0 0 1 0-3zM7 9v1h9V9zm0 2v1h9v-1zm0 2v1h9v-1zm0 2v1h5v-1z"/></svg>
